X:1
T:My Loved Ones Are Waiting for Me
T:My Loved Ones Are Waiting for Me
T:James David Vaughan
T:James David Vaughan, 1904
T:Public Domain Courtesy of the Cyber Hymnal™
T:Public Domain Courtesy of the Cyber Hymnal™
C:James David Vaughan
Z:Public Domain
Z:Courtesy of the Cyber Hymnal™
%%score ( 1 2 ) ( 3 4 )
L:1/8
Q:1/4=85
M:6/8
K:Ab
V:1 treble 
V:2 treble 
V:3 bass 
V:4 bass 
V:1
 [CA] | [Ec][Ec][Ec] [Ec][DB][CA] | [DB][DA][DF] [CE]2 [CE] | [CA][EA][EA] [Ec][EB][FA] | %4
w: 1.~When|I shall cross o- ver the|dark roll- ing tide, O|what a glad meet- ing there’ll|
w: 2.~A|dear, lov- ing mo- ther now|waits on that shore, To|clasp me a- gain to her|
w: 3.~Dear|fa- ther and bro- thers and|kin- dred have gone, To|dwell in that coun- try so|
w: 4.~I|some- times get wea- ry and|long to go home, But|all of my work is not|
 [GB]3- [GB]2 [CA] | [Ec][Ec][Ec] [Ec][EB][EA] | [FB][FA][DF] [CE]2 [CE] | %7
w: be, * For|close by the beau- ti- ful|pearl- y white gate, My|
w: breast; * She|left this world shout- ing the|prais- es of God, By|
w: fair; * And|while I still lin- ger on|time’s trou- bled shore, They’re|
w: done; * I’m|glad I can la- bor for|Je- sus, my Lord, Till|
 [CA][CA][DB] [Ec]<!fermata![Ec][DB] | [CA]3- [CA]2 z ||"^Refrain" [Ac][Ae][Ae] [Ae]2 [Ec] | %10
w: loved ones are wait- ing for|me. *||
w: an- gels was car- ried to|rest. *|Wait- ing for me, they’re|
w: watch- ing and wait- ing up|there. *||
w: sounds the sweet mes- sage, “come|home.” *||
!p! [FB][FA][DF] [CE]2 [CE] | [EA][EA][Ac] [Ae][Ge][Ac] | B3- [GB]2 z | %13
w: |||
w: wait- ing for me, O|what a glad meet- ing ’twill|be! Wait-|
w: |||
w: |||
!f! [Ac][Ae][Ae] [Ae]2 [Ec] |!p! [FB][FA][DF] [CE]2 [CE] | [CA][CA][DB] [Ec]<!fermata![Ec][DB] | %16
w: |||
w: * ing for me, they’re|wait- ing for me, My|loved ones are wait- ing for|
w: |||
w: |||
 A3- !fermata![CA]2 |] %17
w: |
w: me. *|
w: |
w: |
V:2
 x | x6 | x6 | x6 | x6 | x6 | x6 | x6 | x6 || x6 | x6 | x6 | GGA x3 | x6 | x6 | x6 | CED x2 |] %17
V:3
 [A,,A,] | [A,,A,][A,,A,][A,,A,] [A,,A,][A,,E,][A,,E,] | [D,F,][D,F,][D,A,] [A,,A,]2 [A,,A,] | %3
w: ~|~ ~ ~ ~ ~ ~|~ ~ ~ ~ ~|
 [A,,A,][C,A,][E,C] A,[G,B,][F,C] | [E,E]3- [E,E]2 [A,,A,] | %5
w: ~ ~ ~ ~ ~ ~|~ * ~|
 [A,,A,][A,,A,][A,,A,] [A,,A,][B,,G,][C,A,] | [D,A,][D,A,][D,A,] [A,,A,]2 [A,,A,] | %7
w: ~ ~ ~ ~ ~ ~|~ ~ ~ ~ ~|
 [F,A,][F,A,][F,A,] [E,A,]<!fermata![E,A,]E, | [A,,E,]3- [A,,E,]2 z || [A,E][A,C][A,C] [A,C]2 A, | %10
w: ~ ~ ~ ~ ~ ~|~ *|~ ~ ~ ~ ~|
!p! [D,A,][D,A,][D,A,] [A,,A,]2 A, | [A,C][A,C][A,E] [CE][B,E][A,E] | [E,E][E,E][F,=D] [E,E]2 z | %13
w: ~ ~ ~ ~ ~|~ ~ ~ ~ ~ glad|meet- ing ’twill be!|
!f! [A,E][A,C][A,C] [A,C]2 A, |!p! [D,A,][D,A,][D,A,] [A,,A,]2 [A,,A,] | %15
w: ~ ~ ~ ~ ~|~ ~ ~ ~ ~|
 [F,A,][F,A,][F,A,] [E,A,]<!fermata![E,A,][E,G,] | A,G,F, !fermata![A,,E,]2 |] %17
w: ~ ~ ~ ~ ~ are|wait- ing for me.|
V:4
 x | x6 | x6 | x3 A, x2 | x6 | x6 | x6 | x5 E, | x6 || x5 A, | x5 A, | x6 | x6 | x5 A, | x6 | x6 | %16
 A,,3- x2 |] %17

